X: 41306
T: Tune For Mairead & Anna Ni Mhaonaigh
R: reel
M: 4/4
K: Gmajor
B2 A2 G3 E|E3 G E2 D2|c2 BA- A2 GA|F3 F F3 E|^D3 F B2 F2|
G2 FE E3 E|E3 E F3 F|G2 G2 d2 c2|B2 AG B2 A>G|G6 z2:|
d2 c2 B2 A2|=f2 e2 c3 c|A3 A d2 Ad|c2 BA B2 G2|
E2 G2 FGAF|G3 G d2 c2|B2 AG B2 A>G|G6 z2:|

